src/cmd/32/zoomin.svg

<?xml version="1.0" encoding="UTF-8" standalone="no"?>
<svg
   xmlns:dc="http://purl.org/dc/elements/1.1/"
   xmlns:cc="http://creativecommons.org/ns#"
   xmlns:rdf="http://www.w3.org/1999/02/22-rdf-syntax-ns#"
   xmlns:svg="http://www.w3.org/2000/svg"
   xmlns="http://www.w3.org/2000/svg"
   xmlns:sodipodi="http://sodipodi.sourceforge.net/DTD/sodipodi-0.dtd"
   xmlns:inkscape="http://www.inkscape.org/namespaces/inkscape"
   viewBox="0 0 32 32"
   version="1.1"
   id="svg4"
   sodipodi:docname="zoomin.svg"
   inkscape:export-filename="/home/jupiter007/Libreoffice yaru theme fullcolor/build/cmd/32/zoomin.png"
   inkscape:export-xdpi="95"
   inkscape:export-ydpi="95"
   inkscape:version="0.92.5 (2060ec1f9f, 2020-04-08)">
  <metadata
     id="metadata10">
    <rdf:RDF>
      <cc:Work
         rdf:about="">
        <dc:format>image/svg+xml</dc:format>
        <dc:type
           rdf:resource="http://purl.org/dc/dcmitype/StillImage" />
      </cc:Work>
    </rdf:RDF>
  </metadata>
  <defs
     id="defs8" />
  <sodipodi:namedview
     pagecolor="#ffffff"
     bordercolor="#666666"
     borderopacity="1"
     objecttolerance="10"
     gridtolerance="10"
     guidetolerance="10"
     inkscape:pageopacity="0"
     inkscape:pageshadow="2"
     inkscape:window-width="1920"
     inkscape:window-height="1011"
     id="namedview6"
     showgrid="true"
     inkscape:zoom="20.85965"
     inkscape:cx="8.810474"
     inkscape:cy="17.154154"
     inkscape:window-x="1920"
     inkscape:window-y="32"
     inkscape:window-maximized="1"
     inkscape:current-layer="svg4">
    <inkscape:grid
       type="xygrid"
       id="grid829" />
  </sodipodi:namedview>
  <path
     inkscape:connector-curvature="0"
     id="path827"
     d="m 7.3243921,7.3243926 a 11,11 0 0 0 0,15.5563494 11,11 0 0 0 15.1848409,0.335599 l 4.967702,4.967702 0.707107,-0.707107 -4.962177,-4.962177 a 11,11 0 0 0 -0.341124,-15.1903664 11,11 0 0 0 -15.5563489,0 z"
     style="opacity:0.6;fill:#000000;fill-opacity:1;fill-rule:nonzero;stroke:#000000;stroke-width:2;stroke-linecap:butt;stroke-linejoin:round;stroke-miterlimit:4;stroke-dasharray:none;stroke-dashoffset:0;stroke-opacity:1" />
  <path
     style="opacity:1;fill:#c8c4b7;fill-opacity:1;fill-rule:nonzero;stroke:none;stroke-width:1.18786657;stroke-linecap:butt;stroke-linejoin:bevel;stroke-miterlimit:4;stroke-dasharray:none;stroke-dashoffset:0;stroke-opacity:1"
     d="m 7.3243921,7.3243926 a 11,11 0 0 0 0,15.5563494 11,11 0 0 0 15.1848409,0.335599 l 4.967702,4.967702 0.707107,-0.707107 -4.962177,-4.962177 a 11,11 0 0 0 -0.341124,-15.1903664 11,11 0 0 0 -15.5563489,0 z"
     id="circle843"
     inkscape:connector-curvature="0" />
  <circle
     style="opacity:1;fill:#fffffe;fill-opacity:1;fill-rule:nonzero;stroke:none;stroke-width:1.07987869;stroke-linecap:butt;stroke-linejoin:bevel;stroke-miterlimit:4;stroke-dasharray:none;stroke-dashoffset:0;stroke-opacity:1"
     id="path826"
     cx="-1.6502875e-06"
     cy="21.358252"
     r="10"
     transform="rotate(-45)" />
  <path
     style="opacity:1;fill:#46a926;fill-opacity:1;stroke:none;stroke-width:2;stroke-linejoin:round;stroke-miterlimit:4;stroke-dasharray:none;stroke-opacity:1"
     d="M 14 10 L 14 14 L 10 14 L 10 16 L 14 16 L 14 20 L 16 20 L 16 16 L 20 16 L 20 14 L 16 14 L 16 10 L 14 10 z "
     id="rect829" />
</svg>

<?xml version="1.0" encoding="UTF-8" standalone="no"?>
<svg
   xmlns:dc="http://purl.org/dc/elements/1.1/"
   xmlns:cc="http://creativecommons.org/ns#"
   xmlns:rdf="http://www.w3.org/1999/02/22-rdf-syntax-ns#"
   xmlns:svg="http://www.w3.org/2000/svg"
   xmlns="http://www.w3.org/2000/svg"
   xmlns:sodipodi="http://sodipodi.sourceforge.net/DTD/sodipodi-0.dtd"
   xmlns:inkscape="http://www.inkscape.org/namespaces/inkscape"
   viewBox="0 0 32 32"
   version="1.1"
   id="svg4"
   sodipodi:docname="zoomin.svg"
   inkscape:export-filename="/home/jupiter007/Libreoffice yaru theme fullcolor/build/cmd/32/zoomin.png"
   inkscape:export-xdpi="95"
   inkscape:export-ydpi="95"
   inkscape:version="1.0.1 (3bc2e813f5, 2020-09-07)">
  <metadata
     id="metadata10">
    <rdf:RDF>
      <cc:Work
         rdf:about="">
        <dc:format>image/svg+xml</dc:format>
        <dc:type
           rdf:resource="http://purl.org/dc/dcmitype/StillImage" />
        <dc:title></dc:title>
      </cc:Work>
    </rdf:RDF>
  </metadata>
  <defs
     id="defs8" />
  <sodipodi:namedview
     pagecolor="#ffffff"
     bordercolor="#666666"
     borderopacity="1"
     objecttolerance="10"
     gridtolerance="10"
     guidetolerance="10"
     inkscape:pageopacity="0"
     inkscape:pageshadow="2"
     inkscape:window-width="1920"
     inkscape:window-height="1011"
     id="namedview6"
     showgrid="true"
     inkscape:zoom="20.85965"
     inkscape:cx="8.3649804"
     inkscape:cy="14.614131"
     inkscape:window-x="0"
     inkscape:window-y="0"
     inkscape:window-maximized="1"
     inkscape:current-layer="svg4"
     inkscape:document-rotation="0"
     inkscape:snap-center="true">
    <inkscape:grid
       type="xygrid"
       id="grid829" />
    <inkscape:grid
       type="xygrid"
       id="grid844"
       dotted="true"
       spacingx="0.5"
       spacingy="0.5"
       empspacing="10" />
  </sodipodi:namedview>
  <path
     id="path853"
     style="opacity:0.6;fill:#000000;fill-opacity:1;fill-rule:evenodd;stroke:#000000;stroke-width:2;stroke-linecap:round;stroke-linejoin:round;stroke-miterlimit:4;stroke-dasharray:none"
     inkscape:transform-center-y="1.1837315"
     d="M 7.908895,7.9364581 A 10,10 0 0 0 7.922705,22.064783 10,10 0 0 0 21.703,22.41005 l 4.951129,4.951128 0.707107,-0.707107 -4.952509,-4.952509 a 10,10 0 0 0 -0.343886,-13.7789144 10,10 0 0 0 -14.142136,0 10,10 0 0 0 -0.01381,0.01381 z"
     inkscape:transform-center-x="-1.1837244" />
  <path
     id="circle848"
     style="opacity:1;fill:#c8c4b7;fill-opacity:1;fill-rule:evenodd;stroke-width:4.70588;stroke-linecap:round;stroke-linejoin:round"
     inkscape:transform-center-y="1.1837315"
     d="M 7.908895,7.9364581 A 10,10 0 0 0 7.922705,22.064783 10,10 0 0 0 21.703,22.41005 l 4.951129,4.951128 0.707107,-0.707107 -4.952509,-4.952509 a 10,10 0 0 0 -0.343886,-13.7789144 10,10 0 0 0 -14.142136,0 10,10 0 0 0 -0.01381,0.01381 z"
     inkscape:transform-center-x="-1.1837244" />
  <circle
     style="opacity:1;fill:#ffffff;fill-rule:evenodd;stroke-width:4.23529;stroke-linecap:round;stroke-linejoin:round"
     id="path844"
     cx="4.0981711e-05"
     cy="21.204357"
     r="9"
     transform="rotate(-45)" />
  <path
     style="opacity:1;fill:#46a926;fill-opacity:1;stroke:none;stroke-width:2;stroke-linejoin:round;stroke-miterlimit:4;stroke-dasharray:none;stroke-opacity:1"
     d="m 14,10 v 4 h -4 v 2 h 4 v 4 h 2 v -4 h 4 v -2 h -4 v -4 z"
     id="rect829" />
</svg>
